icons/unity-panel/24x24/panel/network-offline.svg

<svg version="1.1" viewBox="0 0 24 24" xmlns="http://www.w3.org/2000/svg">
 <path d="m12 3c-3.7463-9e-4 -7.4923 1.1917-10.621 3.5801l-0.37891 0.29102 0.29297 0.375 10.703 13.754 1.0039-1.2891v-1.5508l-1.0039 1.2891-9.6289-12.375c2.877-2.066 6.2475-3.1297 9.6328-3.1289 3.3853 8.3e-4 6.7568 1.0654 9.6328 3.1328l-3.0547 3.9219h1.209l3.2129-4.125-0.37891-0.28906c-3.1276-2.3899-6.8748-3.585-10.621-3.5859z" color="#000000" color-rendering="auto" fill="#F9F9F9" image-rendering="auto" shape-rendering="auto" solid-color="#000000" style="font-feature-settings:normal;font-variant-alternates:normal;font-variant-caps:normal;font-variant-ligatures:none;font-variant-numeric:normal;font-variant-position:normal;isolation:auto;mix-blend-mode:normal;shape-padding:0;text-decoration-color:#000000;text-decoration-line:none;text-decoration-style:solid;text-indent:0;text-transform:none;white-space:normal"/>
 <path d="m14.707 12-0.70703 0.70703 3.8008 3.8008-3.8008 3.8008 0.70703 0.70703 3.8008-3.8008 3.8008 3.8008 0.70703-0.70703-3.8008-3.8008 3.8008-3.8008-0.70703-0.70703-3.8008 3.8008z" fill="#F9F9F9" stroke-width="1.084"/>
</svg>

<svg viewBox="0 0 24 24" xmlns="http://www.w3.org/2000/svg"><path d="M12 3A17.472 17.472 0 0 0 1.379 6.58L1 6.871l.293.375L11.996 21 13 19.711v-1.55l-1.004 1.288L2.367 7.074C5.244 5.008 8.615 3.944 12 3.945c3.385.001 6.757 1.066 9.633 3.133L18.578 11h1.21L23 6.875l-.379-.289A17.478 17.478 0 0 0 12 3z" color="#000" fill="#F9F9F9" style="font-feature-settings:normal;font-variant-alternates:normal;font-variant-caps:normal;font-variant-ligatures:none;font-variant-numeric:normal;font-variant-position:normal;isolation:auto;mix-blend-mode:normal;shape-padding:0;text-decoration-color:#000;text-decoration-line:none;text-decoration-style:solid;text-indent:0;text-transform:none;white-space:normal"/><path d="m14.707 12-.707.707 3.8 3.8L14 20.31l.707.707 3.8-3.801 3.802 3.8.707-.706-3.801-3.801 3.8-3.801L22.31 12l-3.801 3.8z" fill="#F9F9F9"/></svg>
